packages/connect-ui/src/components/modal/assets/hiro-wallet-logo.svg

<svg width="118" height="21" viewBox="0 0 118 21" fill="none" xmlns="http://www.w3.org/2000/svg">
<path d="M35.2119 2.77463V15.8899H37.3666V10.1941H43.4558V15.8899H45.6104V2.77463H43.4558V8.28304H37.3666V2.77463H35.2119Z" fill="black"/>
<path d="M48.6198 2.47485C47.9265 2.47485 47.3832 2.98073 47.3832 3.6927C47.3832 4.40467 47.9265 4.91055 48.6198 4.91055C49.313 4.91055 49.8564 4.40467 49.8564 3.6927C49.8564 2.98073 49.313 2.47485 48.6198 2.47485ZM47.608 6.29702V15.8899H49.6315V6.29702H47.608Z" fill="black"/>
<path d="M56.2804 6.29702C54.7065 6.29702 53.9383 6.93404 53.4512 7.7397L53.2264 6.29702H51.4277V15.8899H53.4512V11.0747C53.4512 9.59457 54.032 8.18936 55.8307 8.18936H56.73V6.29702H56.2804Z" fill="black"/>
<path d="M61.904 16.0023C64.8268 16.0023 66.7941 14.035 66.7941 11.0935C66.7941 8.17063 64.8268 6.1846 61.904 6.1846C58.9811 6.1846 57.0138 8.17063 57.0138 11.0935C57.0138 14.035 58.9811 16.0023 61.904 16.0023ZM61.904 14.2786C60.199 14.2786 59.0936 12.9483 59.0936 11.0935C59.0936 9.23858 60.199 7.90832 61.904 7.90832C63.609 7.90832 64.7331 9.23858 64.7331 11.0935C64.7331 12.9483 63.609 14.2786 61.904 14.2786Z" fill="black"/>
<path d="M70.0982 2.77463L74.0703 15.8899H75.2881L78.6794 4.46088L82.0706 15.8899H83.2884L87.2792 2.77463H86.23L82.6889 14.5596L79.2415 2.77463H78.211L74.6698 14.5596L71.1662 2.77463H70.0982Z" fill="black"/>
<path d="M96.1944 15.0093C95.6698 15.0093 95.3513 14.6721 95.3513 14.0912V9.66951C95.3513 7.49613 94.0023 6.27828 91.6228 6.27828C89.4494 6.27828 88.0255 7.3275 87.7819 9.05122H88.7374C88.981 7.88958 89.9928 7.12141 91.5853 7.12141C93.3652 7.12141 94.3957 8.05821 94.3957 9.63204V10.4564H91.1731C88.7374 10.4564 87.4259 11.5057 87.4259 13.2856C87.4259 14.9718 88.7562 16.0023 90.7984 16.0023C92.7282 16.0023 93.8899 15.103 94.4332 13.9226V14.3161C94.3957 15.2903 94.8641 15.8899 95.9883 15.8899H96.5504V15.0093H96.1944ZM94.3957 12.049C94.3957 13.8664 93.1029 15.1779 90.8546 15.1779C89.3557 15.1779 88.4002 14.4097 88.4002 13.2294C88.4002 11.9741 89.3557 11.2808 91.0982 11.2808H94.3957V12.049Z" fill="black"/>
<path d="M97.64 2.77463V15.8899H98.5955V2.77463H97.64Z" fill="black"/>
<path d="M100.655 2.77463V15.8899H101.61V2.77463H100.655Z" fill="black"/>
<path d="M103.351 11.1309C103.351 14.0163 105.206 16.0023 107.904 16.0023C109.983 16.0023 111.538 14.6533 111.969 12.7422H110.995C110.62 14.2224 109.384 15.1405 107.829 15.1405C105.805 15.1405 104.381 13.6041 104.344 11.3745C104.344 11.2996 104.344 11.2246 104.362 11.1497H112.1C112.119 11.0185 112.119 10.8686 112.119 10.7562C112.026 7.92706 110.283 6.27828 107.735 6.27828C105.149 6.27828 103.351 8.22684 103.351 11.1309ZM104.419 10.344C104.587 8.4142 106.011 7.12141 107.754 7.12141C109.609 7.12141 110.939 8.26431 111.089 10.344H104.419Z" fill="black"/>
<path d="M114.347 13.679C114.347 15.1967 114.965 15.8899 116.576 15.8899H118V15.0093H116.614C115.658 15.0093 115.302 14.6346 115.302 13.6603V7.27129H117.832V6.3907H115.302V3.73017H114.347V6.3907H112.548V7.27129H114.347V13.679Z" fill="black"/>
<path fill-rule="evenodd" clip-rule="evenodd" d="M21.2425 20.4255L28.1872 10.2127L21.2425 0H6.9447V20.4255H21.2425ZM6.94466 20.4255L0 10.2127L6.94466 1.51778e-05V20.4255ZM19.2 8.34769H16.1473L18.291 5.10637H16.6704L14.0893 9.01654L11.5169 5.10637H9.89619L12.0399 8.34769H8.98725V9.59963H19.2V8.34769ZM16.0873 12.0349L18.2567 15.3191H16.6361L14.0893 11.4604L11.5426 15.3191H9.93049L12.0999 12.0435H8.98725V10.8001H19.2V12.0349H16.0873Z" fill="black"/>
</svg>

<svg xmlns="http://www.w3.org/2000/svg" width="118" height="21" fill="none">
  <path fill="#000" d="M35.212 2.775V15.89h2.155v-5.696h6.089v5.696h2.154V2.775h-2.154v5.508h-6.09V2.775h-2.154Zm13.408-.3c-.694 0-1.237.506-1.237 1.218s.543 1.218 1.237 1.218c.693 0 1.236-.506 1.236-1.218s-.543-1.218-1.236-1.218Zm-1.012 3.822v9.593h2.024V6.297h-2.024Zm8.672 0c-1.574 0-2.342.637-2.829 1.443l-.225-1.443h-1.798v9.593h2.023v-4.815c0-1.48.581-2.886 2.38-2.886h.899V6.297h-.45Zm5.624 9.705c2.923 0 4.89-1.967 4.89-4.908 0-2.923-1.967-4.91-4.89-4.91-2.923 0-4.89 1.987-4.89 4.91 0 2.941 1.967 4.908 4.89 4.908Zm0-1.723c-1.705 0-2.81-1.33-2.81-3.185s1.105-3.186 2.81-3.186 2.83 1.33 2.83 3.186c0 1.854-1.125 3.185-2.83 3.185Zm8.194-11.504L74.07 15.89h1.218L78.68 4.46l3.392 11.43h1.217L87.28 2.775h-1.05L82.689 14.56 79.242 2.775H78.21L74.67 14.56 71.166 2.775h-1.068ZM96.194 15.01c-.524 0-.843-.338-.843-.919V9.67c0-2.174-1.349-3.392-3.728-3.392-2.174 0-3.598 1.05-3.841 2.773h.955c.244-1.161 1.256-1.93 2.848-1.93 1.78 0 2.81.937 2.81 2.511v.824h-3.222c-2.436 0-3.747 1.05-3.747 2.83 0 1.686 1.33 2.716 3.372 2.716 1.93 0 3.092-.899 3.635-2.08v.394c-.037.974.431 1.574 1.555 1.574h.562v-.88h-.356Zm-1.798-2.961c0 1.817-1.293 3.129-3.541 3.129-1.5 0-2.455-.768-2.455-1.949 0-1.255.956-1.948 2.698-1.948h3.298v.768Zm3.244-9.274V15.89h.956V2.775h-.956Zm3.015 0V15.89h.955V2.775h-.955Zm2.696 8.355c0 2.886 1.855 4.872 4.553 4.872 2.079 0 3.634-1.349 4.065-3.26h-.974c-.375 1.48-1.611 2.398-3.166 2.398-2.024 0-3.448-1.536-3.485-3.766 0-.074 0-.15.018-.224h7.738c.019-.132.019-.281.019-.394-.093-2.829-1.836-4.478-4.384-4.478-2.586 0-4.384 1.949-4.384 4.853Zm1.068-.786c.168-1.93 1.592-3.223 3.335-3.223 1.855 0 3.185 1.143 3.335 3.223h-6.67Zm9.928 3.335c0 1.518.618 2.21 2.229 2.21H118v-.88h-1.386c-.956 0-1.312-.374-1.312-1.349V7.271h2.53v-.88h-2.53V3.73h-.955v2.66h-1.799v.88h1.799v6.408Z"/>
  <path fill="#000" fill-rule="evenodd" d="m21.242 20.425 6.945-10.212L21.242 0H6.945v20.425h14.297Zm-14.297 0L0 10.213 6.945 0v20.425ZM19.2 8.348h-3.053l2.144-3.242h-1.62l-2.582 3.91-2.572-3.91h-1.62l2.143 3.242H8.987V9.6H19.2V8.348Zm-3.113 3.687 2.17 3.284h-1.62l-2.548-3.859-2.546 3.86H9.93l2.17-3.277H8.987V10.8H19.2v1.235h-3.113Z" clip-rule="evenodd"/>
</svg>
